svg/minecraft.svg

<svg xmlns="http://www.w3.org/2000/svg" viewBox="0 0 24 24"><path d="M4 2h16a2 2 0 0 1 2 2v16a2 2 0 0 1-2 2H4a2 2 0 0 1-2-2V4a2 2 0 0 1 2-2m2 4v4h4v2H8v6h2v-2h4v2h2v-6h-2v-2h4V6h-4v4h-4V6z"/></svg>

<?xml version="1.0" encoding="UTF-8"?><!DOCTYPE svg PUBLIC "-//W3C//DTD SVG 1.1//EN" "http://www.w3.org/Graphics/SVG/1.1/DTD/svg11.dtd"><svg xmlns="http://www.w3.org/2000/svg" xmlns:xlink="http://www.w3.org/1999/xlink" version="1.1" id="mdi-minecraft" width="24" height="24" viewBox="0 0 24 24"><path d="M4,2H20A2,2 0 0,1 22,4V20A2,2 0 0,1 20,22H4A2,2 0 0,1 2,20V4A2,2 0 0,1 4,2M6,6V10H10V12H8V18H10V16H14V18H16V12H14V10H18V6H14V10H10V6H6Z" /></svg>
